packages/sources/icons/src/vitamix/walk-fill.svg

<svg width="16" height="16" viewBox="0 0 16 16" xmlns="http://www.w3.org/2000/svg"><path d="M5.07806 5.808L7.21472 4.256C7.45458 4.08047 7.74632 3.99034 8.04339 4C8.40573 4.00903 8.75625 4.13074 9.04622 4.34819C9.3362 4.56564 9.55122 4.86803 9.66139 5.21333C9.78539 5.602 9.89872 5.86467 10.0014 6.00133C10.3116 6.4152 10.714 6.75107 11.1767 6.98228C11.6393 7.2135 12.1495 7.33369 12.6667 7.33333V8.66666C11.9783 8.66741 11.2982 8.51552 10.6755 8.22191C10.0527 7.9283 9.50285 7.50028 9.06539 6.96866L8.60072 9.60533L9.97472 10.7587L11.4567 14.8307L10.2034 15.2867L8.84339 11.5507L6.58339 9.654C6.39792 9.50423 6.256 9.30748 6.1724 9.08424C6.0888 8.86099 6.06658 8.61941 6.10806 8.38466L6.44739 6.46133L5.99606 6.78933L4.57806 8.74133L3.49939 7.95733L5.06672 5.8L5.07806 5.808ZM9.00006 3.66667C8.64644 3.66667 8.3073 3.52619 8.05725 3.27614C7.8072 3.02609 7.66672 2.68695 7.66672 2.33333C7.66672 1.97971 7.8072 1.64057 8.05725 1.39052C8.3073 1.14048 8.64644 1 9.00006 1C9.35368 1 9.69282 1.14048 9.94287 1.39052C10.1929 1.64057 10.3334 1.97971 10.3334 2.33333C10.3334 2.68695 10.1929 3.02609 9.94287 3.27614C9.69282 3.52619 9.35368 3.66667 9.00006 3.66667ZM7.01872 12.454L4.87606 15.0073L3.85472 14.1507L5.83872 11.7867L6.33606 10.3333L7.53006 11.3333L7.01872 12.454Z"/></svg>

<svg width="16" height="16" xmlns="http://www.w3.org/2000/svg"><path d="m5.078 5.808 2.137-1.552A1.33 1.33 0 0 1 8.043 4a1.744 1.744 0 0 1 1.618 1.213c.124.389.238.652.34.788a3.328 3.328 0 0 0 2.666 1.332v1.334a4.657 4.657 0 0 1-3.602-1.698l-.464 2.636 1.374 1.154 1.482 4.072-1.254.456-1.36-3.736-2.26-1.897a1.333 1.333 0 0 1-.475-1.27l.34-1.923-.452.328-1.418 1.952L3.5 7.957 5.067 5.8l.011.008ZM9 3.667A1.333 1.333 0 1 1 9 1a1.333 1.333 0 0 1 0 2.667ZM7.02 12.454l-2.143 2.553-1.021-.856 1.984-2.364.497-1.454 1.194 1-.511 1.121Z"/></svg>
